X: 40676
T: Top The Candle
R: slip jig
M: 9/8
K: Gmajor
|:GAG d2B B2G|F2A A2B c2A|GAG d2G B2G|D2G G2F G3:|
BcB A2G F2D|E2A A2G F2D|EFE D3 B2G|D2G G2F G2A|
BcB A2G F2D|E2A A2G F2A|e3 d2c B2A|D2G G2F G3||

